X: 2
T: Hundred Pipers March, The
M: 4/4
L: 1/8
R: barndance
K: Gmaj
|: GA |\
B2 D2 D2 ED | E2 F2 G2 e2 | d2 B2 BA G2 | B2 A2 A2 GA |
B2 D2 DE D2 | E3 F G2 e2 | d2 B2 AB A2 | G4 G2 :|
|: Bc |\
d2 d2 d2 ^cd | e2 f2 g2 fe | d2 B2 B2 AG | B2 A2 A2 Bc |
de d2 d^c d2 | e3 f g2 e2 | d2 B2 AB A2 | G4 G2 :|
